X:61
T:K.T.'s Dream
M:C|
L:1/8
C:© Paul Gitlitz 1984
R:Reel
B:Giblitz Fancy, 141 Brand New Old Time Fiddle Tunes Vol. 2
N:The first in a series of dream tunes.
K:C
"G"G,CB,C DFEF|"F"cFBF AGFD|"G"G,CB,C DFEF|"F"dcAF "G"~G4|!
"Gsus"G,CB,C DFEF|"G7sus"cFBF AGFD|"Dm"dFEF "Am"AcBc|"F"dcAF "G" G4:|!
|:"Dm7"gf^cd cdB=c|"F"dcAF "G"GFD2|gf^cd cdB=c|"F"dcAF "G"G2g2-|!
gf^cd cdB=c|"F"dcAF "G"GFDC|"F"A,FEF AcBc|"F"dcAF "G"G4:|]
